src/pos-icons/magnify-plus-outline.svg

<svg height="24" viewBox="0 0 24 24" width="24" xmlns="http://www.w3.org/2000/svg"><path d="m15.5 14 5 5-1.5 1.5-5-5v-.79l-.27-.28c-1.14.98-2.62 1.57-4.23 1.57a6.5 6.5 0 0 1 -6.5-6.5 6.5 6.5 0 0 1 6.5-6.5 6.5 6.5 0 0 1 6.5 6.5c0 1.61-.59 3.09-1.57 4.23l.28.27zm-6 0c2.5 0 4.5-2 4.5-4.5s-2-4.5-4.5-4.5-4.5 2-4.5 4.5 2 4.5 4.5 4.5m2.5-4h-2v2h-1v-2h-2v-1h2v-2h1v2h2z"/></svg>

<?xml version="1.0" encoding="UTF-8"?><!DOCTYPE svg PUBLIC "-//W3C//DTD SVG 1.1//EN" "http://www.w3.org/Graphics/SVG/1.1/DTD/svg11.dtd"><svg xmlns="http://www.w3.org/2000/svg" xmlns:xlink="http://www.w3.org/1999/xlink" version="1.1" id="mdi-magnify-plus-outline" width="24" height="24" viewBox="0 0 24 24"><path d="M15.5,14L20.5,19L19,20.5L14,15.5V14.71L13.73,14.43C12.59,15.41 11.11,16 9.5,16A6.5,6.5 0 0,1 3,9.5A6.5,6.5 0 0,1 9.5,3A6.5,6.5 0 0,1 16,9.5C16,11.11 15.41,12.59 14.43,13.73L14.71,14H15.5M9.5,14C12,14 14,12 14,9.5C14,7 12,5 9.5,5C7,5 5,7 5,9.5C5,12 7,14 9.5,14M12,10H10V12H9V10H7V9H9V7H10V9H12V10Z" /></svg>
